X: 041
M: C|
L: 1/8
K: D
|:\
d2a2 a2b2 | a2g2f2a2 |\
a4 b2ag | f4 e4 |\
fga2 b2g2 | a4 a2z2 :|\
|:\
b4 b2ag | a4 a2ef |
g2f2 e2d2 | c2A2 .e2.e2 |\
.e4 f2ef | g4 g2fg |\
a2f2 e2d2 | c2A2 .e2.e2 |\
.e4 f2ef | g4 g2fg |\
agfg e2^c2 | d4 d2z2 :|

